X: 9700
T: Decision, The
R: jig
M: 6/8
K: Dmixolydian
|:D2 F D2 G|D2 A D2 B|c2 A BAG|A2 F GFE|
D2 F D2 G|D2 A D2 B|c2 A BAG|ADD D3:|
|:d2 c dAA|B2 G AGF|d2 c d2 (A|A2) G2 A2|
d2 c dAA|B2 G AGF|c2 A BAG|ADD D3:|

